static/icons/basic/line-chart-up.svg

<svg width="28" height="28" viewBox="0 0 28 28" fill="none" xmlns="http://www.w3.org/2000/svg">
<path d="M26 26H4.13333C3.3866 26 3.01323 26 2.72801 25.8547C2.47713 25.7268 2.27316 25.5229 2.14532 25.272C2 24.9868 2 24.6134 2 23.8667V2M26 7.33333L18.7542 14.5791C18.4902 14.8431 18.3582 14.9751 18.206 15.0246C18.0721 15.0681 17.9279 15.0681 17.794 15.0246C17.6418 14.9751 17.5098 14.8431 17.2458 14.5791L14.7542 12.0876C14.4902 11.8236 14.3582 11.6916 14.206 11.6421C14.0721 11.5986 13.9279 11.5986 13.794 11.6421C13.6418 11.6916 13.5098 11.8236 13.2458 12.0876L7.33333 18M26 7.33333H20.6667M26 7.33333V12.6667" stroke="#121315" stroke-width="2.66667" stroke-linecap="round" stroke-linejoin="round"/>
</svg>

<svg xmlns="http://www.w3.org/2000/svg" width="28" height="28" fill="none"><path stroke="#121315" stroke-linecap="round" stroke-linejoin="round" stroke-width="2.667" d="M26 26H4.133c-.746 0-1.12 0-1.405-.145a1.334 1.334 0 0 1-.583-.583C2 24.987 2 24.613 2 23.867V2m24 5.333-7.246 7.246c-.264.264-.396.396-.548.446a.667.667 0 0 1-.412 0c-.152-.05-.284-.182-.548-.446l-2.492-2.491c-.264-.264-.396-.396-.548-.446a.667.667 0 0 0-.412 0c-.152.05-.284.182-.548.446L7.333 18M26 7.333h-5.333m5.333 0v5.334"/></svg>
